X: 17
T:Napsterâ€™s Retreat
R:Reel
M:4/4
L:1/8
N:Tom Adler
H:Sweet Nell, Coal Holler CD 0246
K:G
|z4D2F2|:G6B2|d2B2GB3|c4-cdc2|D8|A2B2A2B2|c2B2AGD2|
G2D3EF2|[1G2D3EF2:|2
G2G2F2=F2|]|E4G4|c3cd2c2|DDD2GGG2|B3Bc2B2|
AAA2FFF2|DDD2FFF2|G6A2|[B3G3]Bc2B2|E4G4|c3cd2c2|DDD2GGG2|
B3Bc2B2|AAA2BBB2|ccc2^ccc2|d8|d2z6||G2G2EDED|G2G2ED3|
_B6BB|_B2BB BBBB|ggg2aaa2|bbb2gfe2|_B6BB|_B2BB
BBBB|B2gagfg2|
c2gagfg2|ggg2fgf2|efe2d2AB|c4B4|A4G4|D8|D2z2D2F2||

